X:27
T:Schottis fr{\aa}n Barseb\"ack
T:Rhenl\"andare efter Per Munkberg
R:schottis
H:efter Per Munkberg, Barseb\"ack
A:Sk{\aa}ne
M:C|
L:1/8
K:D
AG | F2AG E2AF | D2FA d2d2 | cege cdec | dfdB A2AG | 
F2AG E2AF | D2FA d2d2 | cege cdec | d2f2 d2 :| 
|: A2 | Affd A2AA | Affd B2B2 | Bgge eccA | Aaaf fddA | 
Affd A2AA | Affd B2B2 | Bgge cdec | d2f2 d2 :| 

